X:1
T:The Star Spangled Banner
T:The Star Spangled Banner
T:Super Bowl LIV - Demi Lovato
%%score 1 { ( 2 4 ) | ( 3 5 ) }
L:1/8
M:3/4
K:Ab
V:1 treble nm="Voice"
V:2 treble nm="Piano"
V:4 treble 
V:3 bass 
V:5 bass 
V:1
 z6 | z6 | z2 z2 E>C | A,2 C2 E2 | A4 c3/2B/4A/4 | A2 C2 =DC/D/ | E2 z2 EE | B<c- c/B/c/<B/ AG | %8
w: ||Oh _|say can you|see by the _|dawn's ear- ly _ _|light. What so|proud- * * * ly _ we _|
 G/F/G z2 FG | A2 A2 E2 | C2 A,2 EC | A,2 C2 E2 | A2 z2 B/cB/ | A2 C2 =DC/D/ | E4 EE | %15
w: hailed _ _ at the|twi- lights' last|gleam- ing. Whose broad|stripes and bright|stars through _ the|per- * lous _ _|fight oe'r the|
 B<c- c/B/B/A/ AG | G/F/G z2 FG | A2 A2 E2 | C/B,/A, A,2 c>c | c2 d2 d<e | e4 dc/B/ | B2 c2 d2 | %22
w: ram _ _ _ parts _ we _|watched _ _ were so|gal- lant- ly|stream- * * ing. And the|rock- ets red _|glare the bombs _|burst- ing in|
 d/<e/ (3d/e/d/- d2 d>A | c2 B/BA/ A>E | G/4F/4E/4C/4E- E2 FG | A2 C2 =DC/D/ | E4 E/F/A | %27
w: air _ _ _ _ _ gave proof|_ _ through _ the night|_ _ _ _ _ _ that our|flag was still _ _|there. Oh _ _|
 A2 A2 AG | F2 F2 F2 | Bc dc BA | A2 G/4F/4G/4F/4G/4F/8E/8F/4D/4 !fermata!E2 | z2 z2 EE | %32
w: say does that _|star spang- led|ban- * * er yet _|wave. _ _ _ _ _ _ _ _ _ _|O'er the|
 G<A- AB cd | e4 g<!fermata!a | z2 z2 AB | B<!breath!c z d !breath!B2 | A6 | %37
w: land _ _ _ of the|free _ _|and the|home _ of the|brave.|
 B3 (3c/B/c/ (3B/A/B/F/<A/- | !fermata!A6 |] %39
w: _ _ _ _ _ _ _ _ _||
V:2
 z2 z2 AB | [CEc]3 [D_Fd] [B,DB]2 | [CEA]6 | z4 [EFB]2 | [DEA]4 [=DGc]B | %5
 [!courtesy!_DEA]2 [C=EG]2 [CFA]2 | [Af]>g [Ge]2 EE | c3 B A2 | [CG]4 FG | [DEA]2 [DEA]4- | %10
 [DEAc]2 [CEA]2 ec | A2 c2 [_FBe]2 | a4 c>B | A2 [CG]2 [=DF]2 | [CE]4 z2 | c3 B A2 | [EG]4 fg | %17
 a2 a2 e2 | c2 A2 [cc'][cc'] | [cc']2 [dd']2 [ee']2 | [ee']4 [dd'][cc'] | [Bb]2 [cc']2 [dd']2 | %22
 [dd']4 [dd']2 | [cc']3 [Bb] [Aa]2 | [EGg]4 fg | a2 [Ec]2 [=A=d]2 | [Be]4 e2 | c a3- a2 | [=df]6 | %29
 Bc dc BA | [EA]4 !fermata!G2 | z6 | z6 | !fermata![B,E]6 | z6 | z6 | [CEA]6 | [DFB]6 | %38
 [DEA]2 !fermata![CEA]4 |] %39
V:3
 z2 z2 _G,_F, | E,6 | A,,6 | z4 [G,,E,]2 | [F,,D,]4 [=E,,C,]2 | [F,,D,]2 B,,4 | %6
 E,,2 G,,F,, [E,,E,][D,,D,] | B,4 F,2 | F,2 =E,4 | [F,,D,]6- | [F,,D,]2 [A,,E,]2 EC | A,2 C2 E2 | %12
 [C,=E,A,B,]4 z2 | z2 =D,2 [G,=B,]2 | [C,G,]4 z2 | B,4 F,2 | B,4 z2 | z4 G,,2 | F,2 E,2 z2 | z6 | %20
 z2 z B, CA, | B,2 [B,E]2 [B,E]2 | [B,E]2 F,2 [=E,B,]2 | [F,A,]6 | [B,,G,]6 | [C,A,]4 [=D,^F,C]2 | %26
 A,2 G,4 | [E,A,]6 | [E,B,]6 | B,,C, D,C, B,,A,, | D,,2 F,,2 !fermata!E,,2 | z6 | z6 | %33
 !fermata![_G,,_F,]6 | z6 | z6 | z6 | z6 | z6 |] %39
V:4
 x6 | x6 | x6 | x6 | x6 | x6 | x6 | [=DF]2 [=EG]2 [FA]2 | x6 | x6 | x6 | x6 | x6 | x6 | x6 | %15
 [=DF]4 [FA]2 | x6 | x6 | x6 | x6 | [EA]6 | x6 | x6 | x6 | x6 | x6 | x6 | x6 | x6 | x6 | x6 | x6 | %32
 x6 | x6 | x6 | x6 | x6 | x6 | x6 |] %39
V:5
 x6 | x6 | x6 | x6 | x6 | x6 | x6 | =D,,4 _D,,2 | C,,4 =D,,=E,, | x6 | x6 | z2 z2 _G,,2 | x6 | x6 | %14
 x6 | G,,2 C,,2 D,,2 | E,,4 z2 | x6 | A,,6 | x6 | _G,,6 | z2 z2 E,,2 | E,,2 z2 z2 | x6 | x6 | x6 | %26
 E,6 | x6 | x6 | x6 | x6 | x6 | x6 | x6 | x6 | x6 | x6 | x6 | x6 |] %39

